frontend/public/svg/misc/satellite.svg

<svg width="152" height="152" viewBox="0 0 152 152" fill="none" xmlns="http://www.w3.org/2000/svg">
<path d="M85.2634 101.955L83.0496 100.156C79.208 103.601 75.4249 107.033 71.5951 110.412C69.7141 112.071 67.8074 113.713 65.8017 115.215C63.1986 117.165 61.5591 116.959 59.2507 114.585C58.4297 113.741 57.6847 112.822 56.6641 111.663C56.3176 114.759 56.139 117.521 55.6796 120.234C54.783 125.656 52.3996 130.723 48.7946 134.871C45.0535 139.214 42.2431 139.489 38.0018 135.793C35.2833 133.425 32.6494 130.96 29.9669 128.549C29.7058 128.403 29.4267 128.293 29.1366 128.221C27.0554 129.936 24.222 130.887 23.9647 134.563C23.8092 136.787 21.7581 137.963 19.497 138.23C18.2936 138.377 17.0747 138.137 16.0166 137.546C14.9584 136.954 14.116 136.041 13.611 134.939C12.6061 132.788 12.637 130.683 14.2253 128.805C14.627 128.332 15.345 127.722 15.834 127.788C19.8751 128.338 21.3965 125.004 23.8288 122.872C22.3337 121.339 20.8432 119.935 19.497 118.404C17.0613 115.631 14.646 112.836 12.3521 109.947C10.9896 108.23 11.6689 106.377 12.6488 104.731C16.5868 98.1197 22.4827 93.9598 29.7136 91.7532C32.4754 90.9105 35.469 90.8264 38.5085 90.3749C38.2979 89.867 38.0518 89.3747 37.7721 88.9014C34.8074 84.4278 34.9918 83.1526 39.0191 79.4502C43.7566 75.0954 48.4553 70.6979 53.196 66.2978C52.3717 64.3826 51.4042 64.5775 50.1342 65.604C48.6342 66.8746 47.0458 68.0371 45.381 69.0827C42.4334 70.8357 40.6016 70.6231 38.0176 68.3371C34.6702 65.3776 31.3275 62.4097 28.1023 59.3203C19.6574 51.2316 11.2506 43.1039 2.88182 34.9373C-0.451717 31.6924 -0.486506 30.8937 2.3049 27.2201C3.13561 26.2079 4.01895 25.2399 4.95126 24.3204C11.6879 17.1663 18.4718 10.0588 25.1507 2.85816C28.2204 -0.452408 29.7398 -1.02605 33.1954 1.87037C40.0529 7.61792 46.6084 13.7271 53.2538 19.7227C58.9298 24.8454 64.5198 30.0634 70.2181 35.1612C73.8175 38.3818 74.0663 39.7798 71.391 43.7303C70.7202 44.72 70.2483 45.8548 69.5152 46.7895C68.6783 47.7362 67.7847 48.6314 66.8393 49.4699L68.8123 52.3578C70.4137 51.0629 71.9259 49.8821 73.3929 48.6476C78.4847 44.361 83.5825 40.0804 88.6343 35.7472C91.3575 33.4107 92.808 33.3673 96.79 35.9533C97.6629 35.4007 98.6402 34.7549 99.6431 34.151C109.016 28.5157 121.122 33.2171 123.454 43.4933C124.694 48.9619 122.651 53.6068 119.062 57.6046C117.735 59.0814 117.017 60.3271 117.452 62.4838C118.062 65.5029 115.892 67.4917 113.938 69.4732C109.491 73.9829 105.115 78.5635 100.472 83.3619L102.473 85.8416C103.705 84.3576 105.016 82.9416 106.401 81.5996C109.686 78.7432 112.587 78.8338 115.625 81.8622C126.073 92.2809 136.643 102.583 146.852 113.235C153.659 120.336 153.11 121.913 146.614 128.922C138.8 137.212 129.686 144.172 119.631 149.526C113.889 152.641 111.367 152.069 107.072 147.254C98.0521 137.147 88.952 127.105 79.8906 117.035C79.2953 116.392 78.7416 115.713 78.2327 115C76.1849 112.042 76.2597 111.138 78.8142 108.49C80.8548 106.376 82.9413 104.305 85.2634 101.955ZM64.1989 108.997C80.7438 94.5308 94.9582 78.4262 110.113 63.209L91.6771 42.199C74.7003 55.7458 58.4323 69.993 42.9847 85.9112L64.1989 108.997ZM43.5426 131.492C47.7195 125.895 51.3563 116.462 49.9209 110.342C48.3719 103.741 43.9719 99.9718 38.6083 99.8163C32.4472 99.6384 24.3992 102.174 20.2308 106.367C27.507 114.546 36.2934 123.341 43.5426 131.492ZM96.3778 99.9876C92.0657 103.713 87.8907 107.318 83.4808 111.128L93.8168 120.316L105.417 110.415L96.3778 99.9876ZM120.737 96.8845L111.745 86.3247L100.644 96.112L110.756 105.923L120.737 96.8845ZM16.6905 20.3942L5.85372 30.1355L16.5842 39.3787L26.0105 29.2626L16.6905 20.3942ZM30.5596 7.58576L20.2315 17.2602L29.9026 25.3252L38.6083 16.3413L30.5596 7.58576ZM143.816 121.506L136.465 114.602L124.254 123.508L131.843 132.606L143.816 121.506ZM124.54 101.225L113.813 110.237L121.37 119.455C125.177 116.252 128.805 113.198 132.659 109.954L124.54 101.225ZM41.779 45.1453L33.3221 54.1103L43.1015 63.1415L50.3088 54.8027L41.779 45.1453ZM115.848 123.914L108.67 114.446C104.704 117.728 101.114 120.694 97.4995 123.685L105.742 131.795L115.848 123.914ZM116.287 144.611L126.281 137.33L118.501 127.98C114.903 130.503 111.584 132.829 108.262 135.158L116.287 144.611ZM54.8887 33.2164L46.5624 41.2821L56.0058 49.8848L63.4467 41.2211L54.8887 33.2164ZM21.2396 43.3897L27.7432 49.1785L37.1499 41.0446C34.8173 38.5918 32.5903 36.2487 30.3384 33.88L21.2396 43.3897ZM43.8373 21.4063L34.6525 29.9537L41.8296 36.6267L50.4742 28.5407L43.8373 21.4063ZM111.938 52.965C116.007 47.6939 116.256 43.7539 112.972 40.7302C109.688 37.7064 104.4 37.8134 100.737 41.2283L111.938 52.965ZM96.3351 88.0186L88.3232 95.2863L90.1826 97.8256L98.2996 89.286L96.3351 88.0186ZM62.0041 54.5014C56.3819 59.5618 56.3819 59.5618 58.257 61.6168L64.4142 56.1291L62.0041 54.5014Z" fill="black"/>
</svg>

<svg xmlns="http://www.w3.org/2000/svg" width="152" height="152" fill="none" viewBox="0 0 152 152"><path fill="#000" d="m85.263 101.955-2.213-1.799c-3.842 3.445-7.625 6.877-11.455 10.256-1.88 1.659-3.788 3.301-5.793 4.803-2.603 1.95-4.243 1.744-6.551-.63-.821-.844-1.566-1.763-2.587-2.922-.346 3.096-.525 5.858-.984 8.571a29.7 29.7 0 0 1-6.885 14.637c-3.742 4.343-6.552 4.618-10.793.922-2.719-2.368-5.353-4.833-8.035-7.244a3.4 3.4 0 0 0-.83-.328c-2.082 1.715-4.915 2.666-5.172 6.342-.156 2.224-2.207 3.4-4.468 3.667a5.72 5.72 0 0 1-5.886-3.291c-1.005-2.151-.974-4.256.614-6.134.402-.473 1.12-1.083 1.609-1.017 4.041.55 5.563-2.784 7.995-4.916-1.495-1.533-2.986-2.937-4.332-4.468-2.436-2.773-4.851-5.568-7.145-8.457-1.362-1.717-.683-3.57.297-5.216 3.938-6.611 9.834-10.771 17.065-12.978 2.761-.843 5.755-.927 8.795-1.378q-.317-.762-.737-1.474c-2.965-4.473-2.78-5.748 1.247-9.45 4.738-4.356 9.436-8.753 14.177-13.153-.824-1.915-1.792-1.72-3.062-.694a41.5 41.5 0 0 1-4.753 3.479c-2.948 1.753-4.78 1.54-7.363-.746-3.348-2.96-6.69-5.927-9.916-9.017a3766 3766 0 0 1-25.22-24.383c-3.334-3.245-3.369-4.043-.577-7.717a37 37 0 0 1 2.646-2.9c6.737-7.154 13.52-14.261 20.2-21.462 3.07-3.31 4.589-3.884 8.044-.988 6.858 5.748 13.413 11.857 20.059 17.853 5.676 5.122 11.266 10.34 16.964 15.438 3.6 3.22 3.848 4.619 1.173 8.57-.67.989-1.143 2.124-1.876 3.058a31 31 0 0 1-2.676 2.68l1.973 2.889c1.602-1.295 3.114-2.476 4.58-3.71 5.093-4.287 10.19-8.568 15.242-12.9 2.724-2.337 4.174-2.38 8.156.205.873-.552 1.85-1.198 2.853-1.802 9.373-5.635 21.479-.934 23.811 9.342 1.24 5.469-.803 10.114-4.392 14.112-1.327 1.476-2.045 2.722-1.61 4.879.61 3.019-1.56 5.008-3.514 6.99-4.447 4.509-8.823 9.09-13.466 13.888l2.001 2.48a53 53 0 0 1 3.928-4.242c3.285-2.857 6.186-2.766 9.224.262 10.448 10.419 21.018 20.721 31.227 31.373 6.807 7.101 6.258 8.678-.238 15.687a104.7 104.7 0 0 1-26.983 20.604c-5.742 3.115-8.264 2.543-12.559-2.272-9.02-10.107-18.12-20.149-27.181-30.219A21 21 0 0 1 78.233 115c-2.048-2.958-1.973-3.862.581-6.51 2.04-2.114 4.127-4.185 6.45-6.535M64.2 108.997c16.545-14.466 30.76-30.57 45.914-45.788l-18.436-21.01C74.7 55.746 58.432 69.993 42.985 85.911zm-20.656 22.495c4.176-5.597 7.813-15.03 6.378-21.15-1.55-6.601-5.95-10.37-11.313-10.526-6.16-.178-14.209 2.358-18.377 6.551 7.276 8.179 16.062 16.974 23.312 25.125m52.835-31.504-12.897 11.14 10.336 9.188 11.6-9.901zm24.359-3.103-8.992-10.56-11.101 9.787 10.112 9.811zM16.691 20.395l-10.837 9.74 10.73 9.244 9.427-10.116zM30.56 7.584 20.232 17.26l9.67 8.065 8.706-8.984zm113.256 113.921-7.351-6.904-12.211 8.906 7.589 9.098zm-19.276-20.281-10.727 9.012 7.557 9.218 11.289-9.501zm-82.761-56.08-8.457 8.965 9.78 9.032 7.207-8.34zm74.069 78.769-7.178-9.468c-3.966 3.282-7.556 6.248-11.17 9.239l8.242 8.11zm.439 20.697 9.994-7.281-7.78-9.35-10.239 7.178zM54.889 33.216l-8.327 8.066 9.444 8.603 7.44-8.664zM21.239 43.39l6.504 5.788 9.407-8.133-6.812-7.165zm22.598-21.984-9.184 8.548 7.177 6.673 8.644-8.086zm68.101 31.559c4.069-5.271 4.318-9.211 1.034-12.235s-8.572-2.917-12.235.498zM96.335 88.019l-8.012 7.267 1.86 2.54 8.117-8.54zM62.005 54.5c-5.623 5.06-5.623 5.06-3.748 7.116l6.157-5.488z"/></svg>
